X:1
T:12 New Songs by some of the best and best-known British composers
T:Cradle Song
T:To H.R.H. The Princess Louise (Marchioness of Lorne) 
T:12 New Songs
T:Alfred Cellier
T:2. Cradle Song
T:Harold Boulton 
T:Creative Commons copyright waiver (CC0 1.0 Universal)
T:Creative Commons copyright waiver (CC0 1.0 Universal)
T:Creative Commons copyright waiver (CC0 1.0 Universal)
T:Creative Commons copyright waiver (CC0 1.0 Universal)
T:Creative Commons copyright waiver (CC0 1.0 Universal)
T:Creative Commons copyright waiver (CC0 1.0 Universal)
C:Alfred Cellier
Z:Harold Boulton (also series editor)
Z:Creative Commons copyright waiver (CC0 1.0 Universal)
%%score 1 { ( 2 3 ) | ( 4 5 ) }
L:1/8
Q:1/4=94
M:6/8
K:F
V:1 treble nm="Voice"
V:2 treble nm="Piano"
V:3 treble 
V:4 bass 
V:5 bass 
V:1
"^Andantino" z6 | z6 | z6 | z6 | z6 | z6 | z6 | z6 | c3 A3/2 c/ d/ f/ | e2 d c2 z | z6 | z6 | z6 | %13
w: ||||||||Sleep, child, and may thy|cra- dle be||||
 z6 | z6 | z6 | z6 | z6 | z2 z !>!c3 | B3/2 A/ G A3/2 G/ F | z6 | z6 | z6 | z6 | z6 | z6 | z6 | %27
w: |||||Sing|ten- der- ly, ten- der- ly,||||||||
 z2 z z2 B | A3/2 G/ A/ c/ A2 G | A2 z z2 z | z6 | z6 | z6 | z6 | z6 | z/ z/ z2 z/ z/ z F | %36
w: Where|on- ly qui- et dreams hold|sway,||||||Sing|
 A3/2 =B/ ^c E2 (3(B/c/B/) | A3 z2 z | z6 | z6 | z6 | z6 | z6 | z6 | z6 | z6 | z6 | z6 | A3 !>!d3 | %49
w: sooth- ing- ly, Lul- la- * *|by.|||||||||||friend, Sing,|
 B3/2 A/ G A3/2 G/ F | z6 | z6 | z6 | z6 | z6 | z6 | z6 | z6 | z6 |] %59
w: ten- der- ly, ten- der- ly,||||||||||
V:2
!mf! ([Fc]3 A>cd/f/) | (e2 d c2 [EB]) | (A>GA/c/ A2 G) | z6 | z6 | z6 | z6 | z6 | z6 | z6 | z6 | %11
 z6 | z6 | z6 | z6 | z6 | z6 | z6 | z6 | z6 | z6 | z6 | z6 | z6 | z6 | z6 | z6 | z6 | z6 | z6 | %30
 z6 | z6 | z6 | z6 | z6 | z6 | z6 | z6 | z6 | z6 | z6 | z6 | z6 | z6 | z6 | z6 | z6 | z6 | z6 | %49
 z6 | z6 | z6 | z6 | z6 | z6 | z6 | z6 | z6 | z6 |] %59
V:3
 x3 A2 A | G3- G2 x | F3 [B,E]3 | x6 | x6 | x6 | x6 | x6 | x6 | x6 | x6 | x6 | x6 | x6 | x6 | x6 | %16
 x6 | x6 | x6 | x6 | x6 | x6 | x6 | x6 | x6 | x6 | x6 | x6 | x6 | x6 | x6 | x6 | x6 | x6 | x6 | %35
 x6 | x6 | x6 | x6 | x6 | x6 | x6 | x6 | x6 | x6 | x6 | x6 | x6 | x6 | x6 | x6 | x6 | x6 | x6 | %54
 x6 | x6 | x6 | x6 | x6 |] %59
V:4
 (A,2 C F2 C) | (B,2 C E2 C) | (F,2 C) (C,2 C) | z6 | z6 | z6 | z6 | z6 | z6 | z6 | z6 | z6 | z6 | %13
 z6 | z6 | z6 | z6 | z6 | z6 | z6 | z6 | z6 | z6 | z6 | z6 | z6 | z6 | z6 | z6 | z6 | z6 | z6 | %32
 z6 | z6 | z6 | z6 | z6 | z6 | z6 | z6 | z6 | z6 | z6 | z6 | z6 | z6 | z6 | z6 | z6 | z6 | z6 | %51
 z6 | z6 | z6 | z6 | z6 | z6 | z6 | z6 |] %59
V:5
 F,6 | F,6 | F,3 C,3 | x6 | x6 | x6 | x6 | x6 | x6 | x6 | x6 | x6 | x6 | x6 | x6 | x6 | x6 | x6 | %18
 x6 | x6 | x6 | x6 | x6 | x6 | x6 | x6 | x6 | x6 | x6 | x6 | x6 | x6 | x6 | x6 | x6 | x6 | x6 | %37
 x6 | x6 | x6 | x6 | x6 | x6 | x6 | x6 | x6 | x6 | x6 | x6 | x6 | x6 | x6 | x6 | x6 | x6 | x6 | %56
 x6 | x6 | x6 |] %59

